dist/img/svg/emblem.svg

<svg width="63" height="40" viewBox="0 0 63 40" fill="none" xmlns="http://www.w3.org/2000/svg">
<path d="M57.7705 8.98361L44.3934 10.6885L44.0656 10.3607C43.9344 10.1639 43.8033 9.96721 43.8033 9.70492L43.6721 8.06557C43.4754 5.2459 41.2459 3.01639 38.4262 2.81967L36.7869 2.68852C36.5246 2.68852 36.3279 2.55738 36.1311 2.42623L34.8852 1.37705C33.8361 0.459017 32.5246 0 31.1475 0C29.7705 0 28.459 0.459017 27.4098 1.37705L26.1639 2.42623C25.9672 2.55738 25.7705 2.68852 25.5082 2.68852L23.8689 2.81967C21.0492 3.01639 18.8197 5.2459 18.6229 8.06557L18.4918 9.70492C18.4918 9.96721 18.3607 10.1639 18.2295 10.3607L17.9016 10.6885L4.65574 8.98361H4.52459C1.96721 8.98361 0 12.3934 0 16.9836C0 21.5082 1.96721 24.918 4.65574 24.918L18.6885 23.082C18.7541 23.541 18.8852 24.0656 19.082 24.459L14.8852 33.377C14.4918 34.0984 14.623 35.0164 15.1475 35.6721C15.6721 36.3279 16.459 36.6557 17.3115 36.459L20.6557 35.8033L22.3607 38.8852C22.7541 39.541 23.4754 40 24.2623 40H24.3279C25.1803 40 25.9016 39.4754 26.2295 38.7541L30.0328 30.623C30.3607 30.6885 30.7541 30.7541 31.082 30.7541C31.4098 30.7541 31.8033 30.6885 32.1311 30.623L35.9344 38.7541C36.3279 39.4754 37.0492 40 37.8361 40H37.9016C38.6885 40 39.4098 39.541 39.8033 38.8852L41.4426 35.8689L44.918 36.5246C45.7049 36.6557 46.5574 36.3934 47.082 35.7377C47.6066 35.082 47.6721 34.2295 47.3443 33.4426L43.1475 24.5246C43.3443 24.0656 43.4754 23.6066 43.541 23.1475L57.7049 24.9836C60.2623 24.9836 62.2295 21.5738 62.2295 17.0492C62.2951 12.3934 60.3279 8.98361 57.7705 8.98361ZM4.52459 22.623C3.60656 22.623 2.29508 20.3279 2.29508 16.918C2.29508 13.5738 3.60656 11.3443 4.45902 11.2131L16.3279 12.7213C15.3443 14.7541 15.541 17.1803 17.1148 18.9508L18.1639 20.1967C18.2951 20.3279 18.3607 20.5246 18.4262 20.7213L4.52459 22.623ZM24.3279 37.6393L22.623 34.6885C22.2295 33.9672 21.5082 33.5738 20.7213 33.5738C20.5902 33.5738 20.459 33.5738 20.3279 33.6393L16.9836 34.3607L20.6557 26.4918C21.5738 27.2131 22.623 27.7377 23.8689 27.8033L25.5082 27.9344C25.7705 27.9344 25.9672 28.0656 26.1639 28.1967L27.4098 29.2459C27.6066 29.377 27.8033 29.5082 28 29.6393L24.3279 37.6393ZM28.918 27.541L27.6721 26.4918C27.1475 26.0328 26.4262 25.7049 25.7049 25.6393L24.0656 25.5082C22.3607 25.3771 21.0492 24 20.918 22.3607L20.7869 20.7213C20.7213 20 20.459 19.2787 20 18.7541L18.9508 17.5082C17.8361 16.1967 17.8361 14.2951 18.9508 12.9836L20 11.7377C20.459 11.2131 20.7869 10.4918 20.7869 9.77049L20.918 8.13115C21.0492 6.42623 22.4262 5.11475 24.0656 4.98361L25.7049 4.85246C26.4262 4.78688 27.1475 4.52459 27.6721 4L28.918 2.95082C29.5738 2.42623 30.3607 2.09836 31.1475 2.09836C31.9344 2.09836 32.7213 2.36066 33.377 2.95082L34.623 4C35.1475 4.45902 35.8689 4.78688 36.5902 4.85246L38.2295 4.98361C39.9344 5.11475 41.2459 6.4918 41.377 8.13115L41.5082 9.77049C41.5738 10.4918 41.8361 11.2131 42.3607 11.7377L43.4098 12.9836C44.5246 14.2951 44.5246 16.1967 43.4098 17.5082L42.3607 18.7541C41.9016 19.2787 41.5738 20 41.5082 20.7213L41.377 22.3607C41.2459 24.0656 39.8689 25.3771 38.2295 25.5082L36.5902 25.6393C35.8689 25.7049 35.1475 25.9672 34.623 26.4918L33.377 27.541C32.7213 28.0656 31.9344 28.3934 31.1475 28.3934C30.3607 28.3934 29.5738 28.1311 28.918 27.541ZM41.9672 33.5738C41.0492 33.3771 40.1311 33.8361 39.6721 34.6885L38.0328 37.5738L34.2951 29.7049C34.4918 29.5738 34.6885 29.4426 34.8852 29.3115L36.1311 28.2623C36.3279 28.1311 36.5246 28 36.7869 28L38.4262 27.8689C39.6721 27.8033 40.7869 27.2787 41.7049 26.4918L45.4426 34.2295L41.9672 33.5738ZM57.9016 22.623L43.8689 20.8525C43.9344 20.6557 44 20.459 44.1311 20.3279L45.1803 19.082C46.6885 17.3115 46.9508 14.8197 45.9672 12.8525L57.8361 11.3443C58.7541 11.4098 60 13.7049 60 17.0492C60 20.3279 58.6885 22.623 57.9016 22.623Z" fill="#999999"/>
<path d="M40.2623 15.2786C40.2623 10.2294 36.1968 6.16382 31.1476 6.16382C26.0984 6.16382 22.0328 10.295 22.0328 15.2786C22.0328 20.3278 26.164 24.3933 31.1476 24.3933C36.1312 24.3933 40.2623 20.3278 40.2623 15.2786ZM31.1476 22.1638C27.3443 22.1638 24.2623 19.0819 24.2623 15.2786C24.2623 11.4753 27.3443 8.39333 31.1476 8.39333C34.9509 8.39333 38.0328 11.4753 38.0328 15.2786C38.0328 19.0819 34.9509 22.1638 31.1476 22.1638Z" fill="#999999"/>
<path d="M34.8196 13.5737L32.9836 13.2458C32.7868 13.1802 32.6557 13.1147 32.5245 12.9179L31.6065 11.2786C31.3442 10.8196 30.7541 10.8196 30.4918 11.2786L29.5737 12.9179C29.5082 13.0491 29.3114 13.1802 29.1147 13.2458L27.2786 13.5737C26.8196 13.6392 26.6229 14.2294 26.9508 14.6229L28.1967 15.9999C28.3278 16.131 28.3934 16.3278 28.3278 16.5245L28.1311 18.3606C28.0655 18.8196 28.5901 19.213 28.9836 19.0163L30.6885 18.2294C30.8852 18.1638 31.0163 18.1638 31.2131 18.2294L32.918 19.0163C33.377 19.213 33.836 18.8851 33.7704 18.3606V16.4589C33.7704 16.2622 33.836 16.0655 33.9016 15.9343L35.1475 14.5573C35.5409 14.2294 35.3442 13.6392 34.8196 13.5737Z" fill="#999999"/>
</svg>

<svg width="63" height="40" viewBox="0 0 63 40" fill="none" xmlns="http://www.w3.org/2000/svg"><path d="M57.77 8.984l-13.377 1.704-.327-.327c-.132-.197-.263-.394-.263-.656l-.13-1.64a5.641 5.641 0 00-5.247-5.245l-1.64-.131c-.261 0-.458-.132-.655-.263l-1.246-1.049C33.836.46 32.525 0 31.148 0c-1.378 0-2.689.459-3.738 1.377l-1.246 1.05c-.197.13-.394.262-.656.262l-1.64.13a5.642 5.642 0 00-5.245 5.247l-.131 1.639c0 .262-.131.459-.262.656l-.328.327L4.656 8.984h-.131c-2.558 0-4.525 3.41-4.525 8 0 4.524 1.967 7.934 4.656 7.934l14.033-1.836c.065.459.196.984.393 1.377l-4.197 8.918c-.393.721-.262 1.64.263 2.295.524.656 1.311.984 2.163.787l3.345-.656 1.705 3.082c.393.656 1.114 1.115 1.901 1.115h.066c.852 0 1.574-.525 1.902-1.246l3.803-8.131c.328.066.721.131 1.049.131.328 0 .721-.066 1.05-.131l3.802 8.131c.394.721 1.115 1.246 1.902 1.246h.066c.786 0 1.508-.459 1.901-1.115l1.64-3.016 3.475.656c.787.13 1.64-.132 2.164-.787.525-.656.59-1.508.262-2.295l-4.197-8.918a5.44 5.44 0 00.394-1.377l14.164 1.836c2.557 0 4.525-3.41 4.525-7.935.065-4.656-1.902-8.065-4.46-8.065zM4.526 22.623c-.918 0-2.23-2.295-2.23-5.705 0-3.344 1.312-5.574 2.164-5.705l11.869 1.508c-.984 2.033-.787 4.46.787 6.23l1.049 1.246c.131.13.197.328.262.524L4.525 22.623zm19.803 15.016l-1.705-2.95c-.393-.722-1.115-1.115-1.902-1.115-.13 0-.262 0-.393.065l-3.344.722 3.672-7.87c.918.722 1.967 1.247 3.213 1.312l1.64.131c.261 0 .458.132.655.263l1.246 1.049.59.393-3.672 8zm4.59-10.098l-1.246-1.05a3.57 3.57 0 00-1.967-.852l-1.64-.13c-1.704-.132-3.016-1.509-3.147-3.148l-.131-1.64C20.72 20 20.459 19.28 20 18.754l-1.05-1.246a3.479 3.479 0 010-4.524L20 11.738c.459-.525.787-1.246.787-1.968l.131-1.639c.131-1.705 1.508-3.016 3.148-3.147l1.639-.132c.721-.065 1.443-.327 1.967-.852l1.246-1.05c.656-.524 1.443-.852 2.23-.852.786 0 1.573.263 2.229.853L34.623 4a3.57 3.57 0 001.967.852l1.64.132c1.704.13 3.016 1.508 3.147 3.147l.131 1.64c.066.72.328 1.442.853 1.967l1.049 1.246a3.479 3.479 0 010 4.524l-1.05 1.246a3.57 3.57 0 00-.852 1.967l-.131 1.64c-.131 1.705-1.508 3.016-3.148 3.147l-1.639.131c-.721.066-1.443.328-1.967.853l-1.246 1.049c-.656.525-1.443.852-2.23.852a3.286 3.286 0 01-2.229-.852zm13.05 6.033c-.919-.197-1.837.262-2.296 1.114l-1.64 2.886-3.737-7.87c.197-.13.393-.261.59-.393l1.246-1.049c.197-.13.394-.262.656-.262l1.64-.131c1.245-.066 2.36-.59 3.278-1.377l3.738 7.738-3.476-.656zm15.934-10.951l-14.033-1.77c.065-.197.131-.394.262-.525l1.05-1.246c1.508-1.77 1.77-4.262.786-6.23l11.87-1.508c.917.066 2.163 2.36 2.163 5.705 0 3.279-1.312 5.574-2.098 5.574z" fill="#999"/><path d="M40.262 15.279a9.095 9.095 0 00-9.114-9.115c-5.05 0-9.115 4.131-9.115 9.115 0 5.049 4.131 9.114 9.115 9.114 4.983 0 9.114-4.065 9.114-9.114zm-9.114 6.885a6.884 6.884 0 01-6.886-6.885 6.884 6.884 0 016.886-6.886 6.884 6.884 0 016.885 6.886 6.884 6.884 0 01-6.885 6.885z" fill="#999"/><path d="M34.82 13.574l-1.836-.328c-.197-.066-.328-.131-.46-.328l-.918-1.64c-.262-.458-.852-.458-1.114 0l-.918 1.64c-.066.131-.263.262-.46.328l-1.835.328c-.46.065-.656.655-.328 1.049L28.197 16a.51.51 0 01.13.524l-.196 1.837c-.066.459.46.852.853.655l1.704-.787a.724.724 0 01.525 0l1.705.787c.459.197.918-.13.852-.655v-1.902c0-.197.066-.393.132-.525l1.245-1.377c.394-.328.197-.918-.327-.983z" fill="#999"/></svg>
